svg/u1f4a1.svg

<svg viewBox="0 0 128 128" xmlns="http://www.w3.org/2000/svg">
  <defs/>
  <path d="M76.09,116.87 A12.09 7.13 0 1 1 51.91,116.87 A12.09 7.13 0 1 1 76.09,116.87 Z" fill="#424242"/>
  <path d="M64,4 C42.92,4 25.82,19.67 25.82,38.99 C25.82,44.03 27.34,49.42 29.57,54.17 C32.7,60.85 36.11,65.79 37.11,67.61 C39.89,72.67 39.49,78 40.26,81.34 C41.71,87.58 46.05,89.84 63.99,89.84 C81.93,89.84 85.79,87.69 87.4,81.94 C88.5,78.03 87.43,73.76 90.2,68.71 C91.2,66.89 95.27,60.86 98.41,54.17 C100.64,49.42 102.16,44.03 102.16,38.99 C102.18,19.67 85.08,4 64,4 Z" fill="#FFD600"/>
  <path d="M85.94,86.13 A21.94 4.46 0 1 1 42.06,86.13 A21.94 4.46 0 1 1 85.94,86.13 Z" fill="#B26500"/>
  <path d="M85.94,86.13 A21.94 4.46 0 1 1 42.06,86.13 A21.94 4.46 0 1 1 85.94,86.13 Z" fill="#B26500"/>
  <path d="M79.99,86.13 A15.99 2.06 0 1 1 48.01,86.13 A15.99 2.06 0 1 1 79.99,86.13 Z" fill="#FFA000"/>
  <path d="M54.229,57.139 Q54.135,57.377 53.897,57.937 Q52.309,61.679 52.774,62.476 Q53.527,63.77 56.005,65.68 Q59.51,68.382 59.51,70.61 Q59.51,75.421 56.066,90.759 L54.114,90.321 Q57.51,75.199 57.51,70.61 Q57.51,69.366 54.784,67.264 Q51.995,65.114 51.046,63.484 Q50.076,61.821 52.056,57.155 Q52.285,56.617 52.371,56.401 Z" fill="#B26500"/>
  <path d="M74.936,55.787 Q77.368,60.999 76.235,63.564 Q75.542,65.124 71.019,68.14 Q70.482,68.499 70.406,68.558 Q68.322,70.192 71.617,90.389 L69.643,90.711 Q66.158,69.348 69.174,66.982 Q69.309,66.877 69.91,66.476 Q73.95,63.782 74.405,62.756 Q75.172,61.021 73.124,56.633 Z" fill="#B26500"/>
  <path d="M52.408,56.319 Q53.039,55.071 53.552,53.679 Q52.616,51.611 51.835,49.083 Q50.193,43.768 50.369,39.902 Q50.598,34.863 53.962,34.256 Q56.419,33.812 57.301,37.052 Q57.921,39.329 57.646,43.229 Q57.236,49.05 55.711,53.572 Q56.44,55.066 57.258,56.265 Q58.997,58.812 59.772,58.304 Q61.419,57.224 62.733,54.307 Q61.638,51.736 60.816,48.376 Q59.496,42.98 59.809,39.213 Q60.228,34.171 63.542,34.21 Q66.756,34.248 67.51,38.392 Q68.072,41.484 67.133,46.298 Q66.204,51.059 64.902,54.263 Q65.319,55.159 65.774,55.934 Q66.627,57.391 67.366,57.917 Q67.805,58.229 68.069,58.059 Q70.001,56.815 71.96,52.458 Q71.138,49.167 70.62,45.875 Q69.875,41.143 70.261,38.376 Q70.839,34.24 73.85,34.24 Q77.341,34.24 77.63,38.539 Q77.836,41.598 76.298,46.489 Q75.196,49.989 74.062,52.609 Q74.49,54.263 74.996,55.917 L73.084,56.503 Q72.907,55.924 72.739,55.346 Q70.983,58.561 69.151,59.741 Q67.747,60.643 66.206,59.546 Q65.118,58.771 64.048,56.946 Q63.933,56.749 63.819,56.545 Q62.499,58.908 60.868,59.976 Q58.451,61.561 55.606,57.393 Q55.168,56.75 54.755,56.035 Q54.485,56.642 54.192,57.221 Z M63.794,51.48 Q64.552,49.082 65.17,45.915 Q66.037,41.471 65.542,38.75 Q65.083,36.228 63.518,36.21 Q62.066,36.193 61.802,39.378 Q61.516,42.821 62.759,47.901 Q63.232,49.834 63.794,51.48 Z M54.482,50.673 Q55.359,47.24 55.651,43.088 Q55.902,39.527 55.371,37.577 Q54.971,36.106 54.318,36.224 Q52.524,36.548 52.367,39.993 Q52.207,43.511 53.745,48.492 Q54.098,49.634 54.482,50.673 Z M73.266,49.214 Q73.827,47.678 74.39,45.889 Q75.816,41.357 75.635,38.674 Q75.471,36.24 73.85,36.24 Q72.579,36.24 72.242,38.653 Q71.897,41.126 72.596,45.564 Q72.883,47.389 73.266,49.214 Z" fill="#FFFFFF"/>
  <path d="M85.89,87.06 C85.89,87.06 80.13,89.84 64,89.84 C47.87,89.84 42.11,87.06 42.11,87.06 C42.11,87.06 41.75,92.2 42.94,94.53 C44.37,97.33 45.47,98.3 45.47,98.3 L46.07,101.15 L45.83,101.9 C45.52,102.88 45.74,103.96 46.43,104.73 L46.95,105.31 L47.53,108.05 L47.33,108.6 C46.95,109.65 47.21,110.82 47.99,111.62 L48.37,112.01 L48.84,114.25 C48.84,114.25 51.22,119.33 64,119.33 C76.78,119.33 79.16,114.25 79.16,114.25 L79.2,114.06 L79.46,113.8 C79.98,113.29 80.15,112.53 79.9,111.85 L79.75,111.46 L80.37,108.5 L81.46,107.35 C82,106.78 82.12,105.94 81.77,105.24 L81.27,104.25 L81.9,101.28 L82.3,100.97 C82.89,100.32 82.9,99.34 82.64,98.67 C82.44,98.14 82.6,97.54 83.01,97.15 C83.64,96.55 84.45,95.64 85.05,94.51 C86.28,92.22 85.89,87.06 85.89,87.06 Z" fill="#82AEC0"/>
  <path d="M45.47,98.3 L46.01,101.17 C51.83,101.14 59.6,101.43 74.51,99.06 C77.2,98.45 80.43,97.24 76.86,97.74 C76.86,97.73 63.17,99.04 45.47,98.3 Z" fill="#2F7889"/>
  <path d="M47.47,108.07 C53.91,107.96 67.07,107.32 81.21,104.25 L81.84,101.28 C67.05,104.64 53.14,105.24 46.89,105.32 L47.47,108.07 Z" fill="#2F7889"/>
  <path d="M80.31,108.49 C67.22,111.33 54.97,112.06 48.34,112.22 L48.77,114.26 C48.77,114.26 48.98,120.59 63.93,120.59 C78.88,120.59 79.09,114.26 79.09,114.26 C79.09,114.26 72.71,116.08 64.86,115.19 C64.06,115.1 64.05,114.03 64.85,113.93 C69.54,113.31 75.14,112.39 79.69,111.45 L80.31,108.49 Z" fill="#2F7889"/>
  <path d="M42.97,85.224 Q49.052,87.841 63.94,87.841 Q78.835,87.841 85.042,85.219 Q86.883,84.441 87.661,86.282 Q88.439,88.123 86.598,88.901 Q79.645,91.839 63.94,91.839 Q48.228,91.839 41.39,88.896 Q40.472,88.501 40.211,87.844 Q39.949,87.188 40.344,86.27 Q41.134,84.434 42.97,85.224 Z" fill="#82AEC0"/>
  <path d="M49.88,10.32 C53.79,9.36 57.88,9.84 60.68,13.24 C61.47,14.2 62.08,15.34 62.22,16.58 C62.5,18.97 61.02,21.23 59.26,22.89 C54.24,27.63 47.11,29.93 43.87,36.47 C43.11,38 42.51,39.65 41.35,40.9 C40.19,42.15 38.26,42.91 36.75,42.11 C35.95,41.69 35.4,40.9 34.95,40.11 C32.11,35.05 32.32,28.6 34.82,23.36 C37.57,17.62 43.6,11.86 49.88,10.32 Z" fill="#FFFF8D"/>
  <path d="M46.45,91.93 C45.57,91.53 45.92,90.21 46.88,90.28 C50.1,90.53 55.58,90.84 62.83,90.84 C70.47,90.84 77.19,90.27 81.11,89.85 C82.08,89.75 82.45,91.08 81.56,91.49 C78.54,92.91 73.01,94.53 63.53,94.53 C54.28,94.53 49.18,93.16 46.45,91.93 Z" fill="#FFD600"/>
  <path d="M51.94,102.03 C51.27,102.27 50.58,102.6 50.24,103.22 C50.12,103.45 50.05,103.71 50.1,103.97 C50.18,104.35 50.53,104.62 50.88,104.79 C51.58,105.13 52.37,105.22 53.14,105.23 C54.73,105.25 56.31,104.95 57.88,104.65 C58.35,104.56 58.83,104.47 59.25,104.24 C59.67,104.01 60.03,103.62 60.1,103.15 C60.2,102.52 59.75,101.91 59.2,101.61 C57.3,100.56 53.86,101.34 51.94,102.03 Z" fill="#94D1E0"/>
  <path d="M53.43,108.62 C52.76,108.86 52.07,109.19 51.73,109.81 C51.61,110.04 51.54,110.3 51.59,110.56 C51.67,110.94 52.02,111.21 52.37,111.38 C53.07,111.72 53.86,111.81 54.63,111.82 C56.22,111.84 57.8,111.54 59.37,111.24 C59.84,111.15 60.32,111.06 60.74,110.83 C61.16,110.6 61.52,110.21 61.59,109.74 C61.69,109.11 61.24,108.5 60.69,108.2 C58.79,107.16 55.34,107.94 53.43,108.62 Z" fill="#94D1E0"/>
  <path d="M50.01,84.2 C50.92,84.29 51.88,84.21 52.65,83.72 C53.42,83.23 53.91,82.23 53.6,81.37 C53.44,80.92 53.09,80.56 52.75,80.22 C52,79.48 51.25,78.74 50.51,78 C49.68,77.17 48.85,76.35 47.95,75.6 C46.56,74.44 44.69,73.35 42.86,74.2 C41.3,74.92 40.93,76.34 41.62,77.83 C43.09,80.96 46.51,83.84 50.01,84.2 Z" fill="#FFFF8D"/>
</svg>

<svg viewBox="0 0 128 128" xmlns="http://www.w3.org/2000/svg">
  <g>
    <ellipse cx="64" cy="116.87" rx="12.09" ry="7.13" fill="#424242"/>
    <path d="M64,4C42.92,4,25.82,19.67,25.82,38.99c0,5.04,1.52,10.43,3.75,15.18 c3.13,6.68,6.54,11.62,7.54,13.44c2.78,5.06,2.38,10.39,3.15,13.73c1.45,6.24,5.79,8.5,23.73,8.5s21.8-2.15,23.41-7.9 c1.1-3.91,0.03-8.18,2.8-13.23c1-1.82,5.07-7.85,8.21-14.54c2.23-4.75,3.75-10.14,3.75-15.18C102.18,19.67,85.08,4,64,4z" fill="#FFD600"/>
    <ellipse cx="64" cy="86.13" rx="21.94" ry="4.46" fill="#B26500"/>
    <ellipse cx="64" cy="86.13" rx="21.94" ry="4.46" fill="#B26500"/>
    <ellipse cx="64" cy="86.13" rx="15.99" ry="2.06" fill="#FFA000"/>
    <g>
      <path d="M53.3,56.77c-0.62,1.56-2.23,4.77-1.39,6.21 c1.95,3.35,6.6,4.55,6.6,7.63c0,4.7-3.42,19.93-3.42,19.93" fill="none" stroke="#B26500" stroke-width="2" stroke-miterlimit="10"/>
      <path d="M74.03,56.21c0,0,2.24,4.8,1.29,6.95 c-0.71,1.6-4.98,4.18-5.53,4.61c-2.55,2,0.84,22.78,0.84,22.78" fill="none" stroke="#B26500" stroke-width="2" stroke-miterlimit="10"/>
      <path d="M53.3,56.77c3.44-6.8,5.21-22.32,0.84-21.53 c-7.37,1.33,1.71,26.83,6.18,23.9s10.01-23.85,3.21-23.93c-6.8-0.08,0.46,26.66,5.08,23.69c3.65-2.35,12.56-23.66,5.24-23.66 c-6.23,0,0.19,20.97,0.19,20.97" fill="none" stroke="#FFFFFF" stroke-width="2" stroke-miterlimit="10"/>
    </g>
    <path d="M85.89,87.06c0,0-5.76,2.78-21.89,2.78s-21.89-2.78-21.89-2.78s-0.36,5.14,0.83,7.47 c1.43,2.8,2.53,3.77,2.53,3.77l0.6,2.85l-0.24,0.75c-0.31,0.98-0.09,2.06,0.6,2.83l0.52,0.58l0.58,2.74l-0.2,0.55 c-0.38,1.05-0.12,2.22,0.66,3.02l0.38,0.39l0.47,2.24c0,0,2.38,5.08,15.16,5.08s15.16-5.08,15.16-5.08l0.04-0.19l0.26-0.26 c0.52-0.51,0.69-1.27,0.44-1.95l-0.15-0.39l0.62-2.96l1.09-1.15c0.54-0.57,0.66-1.41,0.31-2.11l-0.5-0.99l0.63-2.97l0.4-0.31 c0.59-0.65,0.6-1.63,0.34-2.3c-0.2-0.53-0.04-1.13,0.37-1.52c0.63-0.6,1.44-1.51,2.04-2.64C86.28,92.22,85.89,87.06,85.89,87.06z" fill="#82AEC0"/>
    <g>
      <path d="M45.47,98.3l0.54,2.87c5.82-0.03,13.59,0.26,28.5-2.11c2.69-0.61,5.92-1.82,2.35-1.32 C76.86,97.73,63.17,99.04,45.47,98.3z" fill="#2F7889"/>
      <path d="M47.47,108.07c6.44-0.11,19.6-0.75,33.74-3.82l0.63-2.97c-14.79,3.36-28.7,3.96-34.95,4.04 L47.47,108.07z" fill="#2F7889"/>
    </g>
    <path d="M80.31,108.49c-13.09,2.84-25.34,3.57-31.97,3.73l0.43,2.04c0,0,0.21,6.33,15.16,6.33 s15.16-6.33,15.16-6.33s-6.38,1.82-14.23,0.93c-0.8-0.09-0.81-1.16-0.01-1.26c4.69-0.62,10.29-1.54,14.84-2.48L80.31,108.49z" fill="#2F7889"/>
    <path d="M42.18,87.06 c0,0,6.46,2.78,21.76,2.78s21.88-2.78,21.88-2.78" fill="none" stroke="#82AEC0" stroke-width="3.9971" stroke-linecap="round" stroke-miterlimit="10"/>
    <path d="M49.88,10.32c3.91-0.96,8-0.48,10.8,2.92c0.79,0.96,1.4,2.1,1.54,3.34 c0.28,2.39-1.2,4.65-2.96,6.31c-5.02,4.74-12.15,7.04-15.39,13.58c-0.76,1.53-1.36,3.18-2.52,4.43c-1.16,1.25-3.09,2.01-4.6,1.21 c-0.8-0.42-1.35-1.21-1.8-2c-2.84-5.06-2.63-11.51-0.13-16.75C37.57,17.62,43.6,11.86,49.88,10.32z" fill="#FFFF8D"/>
    <path d="M46.45,91.93c-0.88-0.4-0.53-1.72,0.43-1.65c3.22,0.25,8.7,0.56,15.95,0.56 c7.64,0,14.36-0.57,18.28-0.99c0.97-0.1,1.34,1.23,0.45,1.64c-3.02,1.42-8.55,3.04-18.03,3.04 C54.28,94.53,49.18,93.16,46.45,91.93z" fill="#FFD600"/>
    <path d="M51.94,102.03c-0.67,0.24-1.36,0.57-1.7,1.19c-0.12,0.23-0.19,0.49-0.14,0.75 c0.08,0.38,0.43,0.65,0.78,0.82c0.7,0.34,1.49,0.43,2.26,0.44c1.59,0.02,3.17-0.28,4.74-0.58c0.47-0.09,0.95-0.18,1.37-0.41 c0.42-0.23,0.78-0.62,0.85-1.09c0.1-0.63-0.35-1.24-0.9-1.54C57.3,100.56,53.86,101.34,51.94,102.03z" fill="#94D1E0"/>
    <path d="M53.43,108.62c-0.67,0.24-1.36,0.57-1.7,1.19c-0.12,0.23-0.19,0.49-0.14,0.75 c0.08,0.38,0.43,0.65,0.78,0.82c0.7,0.34,1.49,0.43,2.26,0.44c1.59,0.02,3.17-0.28,4.74-0.58c0.47-0.09,0.95-0.18,1.37-0.41 c0.42-0.23,0.78-0.62,0.85-1.09c0.1-0.63-0.35-1.24-0.9-1.54C58.79,107.16,55.34,107.94,53.43,108.62z" fill="#94D1E0"/>
    <path d="M50.01,84.2c0.91,0.09,1.87,0.01,2.64-0.48c0.77-0.49,1.26-1.49,0.95-2.35 c-0.16-0.45-0.51-0.81-0.85-1.15C52,79.48,51.25,78.74,50.51,78c-0.83-0.83-1.66-1.65-2.56-2.4c-1.39-1.16-3.26-2.25-5.09-1.4 c-1.56,0.72-1.93,2.14-1.24,3.63C43.09,80.96,46.51,83.84,50.01,84.2z" fill="#FFFF8D"/>
  </g>
</svg>
